X: 1481
T: Andrew Carr
R: slip jig
M: 9/8
K: Dmajor
|:F2 A AFA AFD|G2 B Bcd c2 A|F2 A AFA Bcd|A,2 D DEF E2 D:|
|:d2 A ABA AGF|E2 e efg f2 e|d>cB AFA Bcd|A,2 D DEF E2 D:|

